packages/ffe-icons/icons/open/400/sm/dehaze.svg

<svg xmlns="http://www.w3.org/2000/svg" height="20" viewBox="0 -960 960 960" width="20"><path d="M180-672q-15.3 0-25.65-10.289-10.35-10.29-10.35-25.5Q144-723 154.35-733.5 164.7-744 180-744h600q15.3 0 25.65 10.289 10.35 10.29 10.35 25.5Q816-693 805.65-682.5 795.3-672 780-672H180Zm0 456q-15.3 0-25.65-10.289-10.35-10.29-10.35-25.5Q144-267 154.35-277.5 164.7-288 180-288h600q15.3 0 25.65 10.289 10.35 10.29 10.35 25.5Q816-237 805.65-226.5 795.3-216 780-216H180Zm0-228q-15.3 0-25.65-10.289-10.35-10.29-10.35-25.5Q144-495 154.35-505.5 164.7-516 180-516h600q15.3 0 25.65 10.289 10.35 10.29 10.35 25.5Q816-465 805.65-454.5 795.3-444 780-444H180Z"/></svg>

<svg xmlns="http://www.w3.org/2000/svg" height="20" viewBox="0 -960 960 960" width="20"><path d="M180-672q-15.3 0-25.65-10.29Q144-692.58 144-707.79t10.35-25.71Q164.7-744 180-744h600q15.3 0 25.65 10.29Q816-723.42 816-708.21t-10.35 25.71Q795.3-672 780-672H180Zm0 456q-15.3 0-25.65-10.29Q144-236.58 144-251.79t10.35-25.71Q164.7-288 180-288h600q15.3 0 25.65 10.29Q816-267.42 816-252.21t-10.35 25.71Q795.3-216 780-216H180Zm0-228q-15.3 0-25.65-10.29Q144-464.58 144-479.79t10.35-25.71Q164.7-516 180-516h600q15.3 0 25.65 10.29Q816-495.42 816-480.21t-10.35 25.71Q795.3-444 780-444H180Z"/></svg>
